X: 1
T:A Way Up On Clinch Mountain
C:Scottish - 17th century - unknown
M:3/4%(3/4, 4/4, 6/8)
L:1/4%(1/8, 1/4)
V:1 clef=treble
K:G%(D, C)
V:1
|g
V:1
|e d B|A G E/2D/2|E G A|B z g|e d B/2B/2|A G E/2D/2|E G A|G2|
